X:130
T: TRAUER TRAUER UEBER TRAUER
N: K2208
O: Europa, Mitteleuropa, Deutschland, Rheinland
R: Kinder - Lied, Reigen, Tanz - Spiel, Brautwerbung
M: 3/4
L: 1/16
K: C
C2E2 | G4E4c2A2 | G4E4
E2G2 | F4D4G2G2 | E8
C2E2 | G4E4c2A2 | G4E4
E2G2 | F4D4G2GF | E8

